public/images/hero-image.svg

<svg fill="none" height="335" viewBox="0 0 481 335" width="481" xmlns="http://www.w3.org/2000/svg" xmlns:xlink="http://www.w3.org/1999/xlink"><linearGradient id="a" gradientUnits="userSpaceOnUse" x1="140.407" x2="296.753" y1="177.832" y2="93.9953"><stop offset="0" stop-color="#ffe7e0"/><stop offset=".109375" stop-color="#f8dbf4"/><stop offset=".526042" stop-color="#c4ddff"/><stop offset="1" stop-color="#cae9ff"/></linearGradient><path clip-rule="evenodd" d="m338.814 313.981c-.717.481-1.438.957-2.162 1.428 80.172-2.624 144.348-67.568 144.348-147.299 0-79.732-64.176-144.676-144.348-147.2996.724.4706 1.445.9464 2.162 1.4273 78.436 3.7073 140.846 67.6143 140.846 145.8723 0 78.257-62.41 142.164-140.846 145.871zm-193.092-293.1926c-80.8699 2.2555-145.722 67.3501-145.722 147.3216 0 79.971 64.8521 145.065 145.722 147.321-.719-.467-1.435-.939-2.146-1.416-79.1487-3.334-142.23617-67.404-142.23617-145.905 0-78.5016 63.08747-142.5715 142.23617-145.9058.711-.477 1.427-.949 2.146-1.4158z" fill="#052b65" fill-rule="evenodd"/><circle cx="240.894" cy="167.479" fill="#052b65" r="167.479"/><g clip-rule="evenodd" fill="url(#a)" fill-rule="evenodd"><path d="m287.017 98.0401c11.116-2.041 52.696-9.6752 54.547 3.3359 1.899 13.325-15.237 31.702-33.164 39.961-.945.435-1.785 1.035-2.625 1.635-.698.499-1.397.999-2.159 1.406-2.821 1.51-4.504 5.28-4.089 8.68v47.609c-14.137-9.781-34.917-15.867-58.469-15.867-23.551 0-44.331 6.086-58.468 15.867v-47.609c.414-3.4-1.269-7.17-4.091-8.68-.76-.407-1.458-.905-2.155-1.403-.841-.602-1.682-1.202-2.628-1.638-17.928-8.259-35.062-26.636-33.165-39.961 1.852-13.0125 43.441-5.3754 54.551-3.3353.884.1624 1.576.2893 2.038.3675.322.0542.623-.2162.559-.5308-.641-3.1477-1.102-11.6588 5.028-13.5015 3.919-1.1791 6.502.9964 8.035 3.1908.687.9847 2.741 5.2409 4.018 8.1953.688 1.5957 2.292 3.9273 4.052 3.8851 7.387-2.2616 14.808-3.3927 22.226-3.3927 7.42 0 14.839 1.1311 22.225 3.3927 1.762.0422 3.364-2.2894 4.053-3.8851 1.276-2.9544 3.331-7.2106 4.017-8.1953 1.533-2.1945 4.118-4.3699 8.036-3.1908 6.13 1.8427 5.668 10.3538 5.029 13.5015-.065.3146.235.585.557.5308.464-.0783 1.156-.2055 2.042-.3681zm-54.787 52.7099c.204-1.205-1.765-4.262-7.915-8.41-4.317-2.877-9.099-5.087-14.101-6.54-1.174-.342-2.397-.563-3.621-.52-2.234.082-4.375.832-6.252 2.16-2.505 1.712-4.24 3.996-4.764 6.951-.536 2.952.301 5.684 2.06 8.136 1.301 1.879 3.052 3.304 5.123 4.132 1.135.455 2.361.656 3.585.731 5.204.316 10.466-.15 15.523-1.401 7.222-1.831 10.134-4.039 10.362-5.239zm47.126 5.909c2.071-.828 3.822-2.253 5.123-4.132 1.759-2.452 2.596-5.182 2.06-8.134-.523-2.956-2.259-5.241-4.764-6.953-1.876-1.328-4.017-2.078-6.251-2.16-1.225-.043-2.448.178-3.622.52-5.002 1.453-9.784 3.663-14.101 6.54-6.15 4.148-8.119 7.203-7.916 8.409.228 1.2 3.141 3.409 10.364 5.24 5.055 1.251 10.318 1.717 15.523 1.401 1.223-.075 2.449-.276 3.584-.731z"/><path d="m171.404 232.171c0-21.789 31.184-39.451 69.654-39.451 38.469 0 69.656 17.663 69.656 39.451s-31.186 39.45-69.656 39.45-69.654-17.662-69.654-39.45zm24.111-2.456c1.064 6.487 6.614 9.348 12.575 6.487 5.814-2.691 9.646-8.313 9.972-14.624-.025-3.344-1.825-2.06-4.048-.475-2.972 2.121-6.699 4.78-7.952-2.365-2.191-12.491-11.714 4.027-10.547 10.977zm78.51 6.487c5.959 2.861 11.509 0 12.575-6.487 1.165-6.95-8.356-23.468-10.547-10.977-1.254 7.146-4.982 4.485-7.953 2.365-2.222-1.585-4.021-2.869-4.046.475.324 6.311 4.157 11.933 9.971 14.624z"/></g></svg>

<svg width="481" height="335" viewBox="0 0 481 335" fill="none" xmlns="http://www.w3.org/2000/svg">
<path fill-rule="evenodd" clip-rule="evenodd" d="M338.814 313.981C338.097 314.462 337.376 314.938 336.652 315.409C416.824 312.785 481 247.841 481 168.11C481 88.378 416.824 23.434 336.652 20.8104C337.376 21.281 338.097 21.7568 338.814 22.2377C417.25 25.945 479.66 89.852 479.66 168.11C479.66 246.367 417.25 310.274 338.814 313.981ZM145.722 20.7884C64.8521 23.0439 0 88.1385 0 168.11C0 248.081 64.8521 313.175 145.722 315.431C145.003 314.964 144.287 314.492 143.576 314.015C64.4273 310.681 1.33983 246.611 1.33983 168.11C1.33983 89.6084 64.4273 25.5385 143.576 22.2042C144.287 21.7272 145.003 21.2552 145.722 20.7884Z" fill="#052B65"/>
<circle cx="240.894" cy="167.479" r="167.479" fill="#052B65"/>
<path fill-rule="evenodd" clip-rule="evenodd" d="M287.017 98.0401C298.133 95.9991 339.713 88.3649 341.564 101.376C343.463 114.701 326.327 133.078 308.4 141.337C307.455 141.772 306.615 142.372 305.775 142.972C305.077 143.471 304.378 143.971 303.616 144.378C300.795 145.888 299.112 149.658 299.527 153.058V200.667C285.39 190.886 264.61 184.8 241.058 184.8C217.507 184.8 196.727 190.886 182.59 200.667V153.058C183.004 149.658 181.321 145.888 178.499 144.378C177.739 143.971 177.041 143.473 176.344 142.975C175.503 142.373 174.662 141.773 173.716 141.337C155.788 133.078 138.654 114.701 140.551 101.376C142.403 88.3635 183.992 96.0006 195.102 98.0407C195.986 98.2031 196.678 98.33 197.14 98.4082C197.462 98.4624 197.763 98.192 197.699 97.8774C197.058 94.7297 196.597 86.2186 202.727 84.3759C206.646 83.1968 209.229 85.3723 210.762 87.5667C211.449 88.5514 213.503 92.8076 214.78 95.762C215.468 97.3577 217.072 99.6893 218.832 99.6471C226.219 97.3855 233.64 96.2544 241.058 96.2544C248.478 96.2544 255.897 97.3855 263.283 99.6471C265.045 99.6893 266.647 97.3577 267.336 95.762C268.612 92.8076 270.667 88.5514 271.353 87.5667C272.886 85.3722 275.471 83.1968 279.389 84.3759C285.519 86.2186 285.057 94.7297 284.418 97.8774C284.353 98.192 284.653 98.4624 284.975 98.4082C285.439 98.3299 286.131 98.2027 287.017 98.0401ZM232.23 150.75C232.434 149.545 230.465 146.488 224.315 142.34C219.998 139.463 215.216 137.253 210.214 135.8C209.04 135.458 207.817 135.237 206.593 135.28C204.359 135.362 202.218 136.112 200.341 137.44C197.836 139.152 196.101 141.436 195.577 144.391C195.041 147.343 195.878 150.075 197.637 152.527C198.938 154.406 200.689 155.831 202.76 156.659C203.895 157.114 205.121 157.315 206.345 157.39C211.549 157.706 216.811 157.24 221.868 155.989C229.09 154.158 232.002 151.95 232.23 150.75ZM279.356 156.659C281.427 155.831 283.178 154.406 284.479 152.527C286.238 150.075 287.075 147.345 286.539 144.393C286.016 141.437 284.28 139.152 281.775 137.44C279.899 136.112 277.758 135.362 275.524 135.28C274.299 135.237 273.076 135.458 271.902 135.8C266.9 137.253 262.118 139.463 257.801 142.34C251.651 146.488 249.682 149.543 249.885 150.749C250.113 151.949 253.026 154.158 260.249 155.989C265.304 157.24 270.567 157.706 275.772 157.39C276.995 157.315 278.221 157.114 279.356 156.659Z" fill="url(#paint0_linear_67_76)"/>
<path fill-rule="evenodd" clip-rule="evenodd" d="M171.404 232.171C171.404 210.382 202.588 192.72 241.058 192.72C279.527 192.72 310.714 210.383 310.714 232.171C310.714 253.959 279.528 271.621 241.058 271.621C202.588 271.621 171.404 253.959 171.404 232.171ZM195.515 229.715C196.579 236.202 202.129 239.063 208.09 236.202C213.904 233.511 217.736 227.889 218.062 221.578C218.037 218.234 216.237 219.518 214.014 221.103C211.042 223.224 207.315 225.883 206.062 218.738C203.871 206.247 194.348 222.765 195.515 229.715ZM274.025 236.202C279.984 239.063 285.534 236.202 286.6 229.715C287.765 222.765 278.244 206.247 276.053 218.738C274.799 225.884 271.071 223.223 268.1 221.103C265.878 219.518 264.079 218.234 264.054 221.578C264.378 227.889 268.211 233.511 274.025 236.202Z" fill="url(#paint1_linear_67_76)"/>
<defs>
<linearGradient id="paint0_linear_67_76" x1="140.407" y1="177.832" x2="296.753" y2="93.9953" gradientUnits="userSpaceOnUse">
<stop stop-color="#FFE7E0"/>
<stop offset="0.109375" stop-color="#F8DBF4"/>
<stop offset="0.526042" stop-color="#C4DDFF"/>
<stop offset="1" stop-color="#CAE9FF"/>
</linearGradient>
<linearGradient id="paint1_linear_67_76" x1="140.407" y1="177.832" x2="296.753" y2="93.9953" gradientUnits="userSpaceOnUse">
<stop stop-color="#FFE7E0"/>
<stop offset="0.109375" stop-color="#F8DBF4"/>
<stop offset="0.526042" stop-color="#C4DDFF"/>
<stop offset="1" stop-color="#CAE9FF"/>
</linearGradient>
</defs>
</svg>
